icons/checkbox-24.svg

<svg xmlns="http://www.w3.org/2000/svg" width="24" height="24" viewBox="0 0 24 24">
  <defs/>
  <path d="M17.28,9.28 A0.75 0.75 0 0 0 16.22,8.22 L10.25,14.19 L7.78,11.72 A0.75 0.75 0 0 0 6.72,12.78 L9.72,15.78 A0.75 0.75 0 0 0 10.78,15.78 L17.28,9.28 Z"/>
  <path d="M3.75,2 L20.25,2 C21.216,2 22,2.784 22,3.75 L22,20.25 C22,21.216 21.216,22 20.25,22 L3.75,22 C2.784,22 2,21.216 2,20.25 L2,3.75 C2,2.784 2.784,2 3.75,2 Z M3.5,3.75 L3.5,20.25 C3.5,20.388 3.612,20.5 3.75,20.5 L20.25,20.5 C20.388,20.5 20.5,20.388 20.5,20.25 L20.5,3.75 C20.5,3.612 20.388,3.5 20.25,3.5 L3.75,3.5 C3.612,3.5 3.5,3.612 3.5,3.75 Z"/>
</svg>

<svg xmlns="http://www.w3.org/2000/svg" width="24" height="24" viewBox="0 0 24 24"><path d="M17.28 9.28a.75.75 0 00-1.06-1.06l-5.97 5.97-2.47-2.47a.75.75 0 00-1.06 1.06l3 3a.75.75 0 001.06 0l6.5-6.5z"/><path d="M3.75 2h16.5c.966 0 1.75.784 1.75 1.75v16.5A1.75 1.75 0 0120.25 22H3.75A1.75 1.75 0 012 20.25V3.75C2 2.784 2.784 2 3.75 2zM3.5 3.75v16.5c0 .138.112.25.25.25h16.5a.25.25 0 00.25-.25V3.75a.25.25 0 00-.25-.25H3.75a.25.25 0 00-.25.25z"/></svg>
